src/assets/icons/months,fancy,december-12.svg

<svg width="48" height="48" viewBox="0 0 48 48" fill="none" xmlns="http://www.w3.org/2000/svg">
<rect opacity="0.2" x="4" y="6" width="40" height="40" rx="4" fill="black"/>
<path d="M12.402 36C15.9474 36 18.0952 33.8068 18.0952 30.1705C18.0952 26.5455 15.9474 24.3636 12.4361 24.3636H8.27699V36H12.402ZM10.7372 33.892V26.4716H12.3054C14.4872 26.4716 15.6406 27.5852 15.6406 30.1705C15.6406 32.767 14.4872 33.892 12.2997 33.892H10.7372ZM19.9176 36H27.7812V33.9716H22.3778V31.1932H27.3551V29.1648H22.3778V26.392H27.7585V24.3636H19.9176V36ZM39.9815 28.4375C39.6577 25.75 37.6236 24.2045 34.9304 24.2045C31.8565 24.2045 29.5099 26.375 29.5099 30.1818C29.5099 33.9773 31.8168 36.1591 34.9304 36.1591C37.9134 36.1591 39.7145 34.1761 39.9815 32.0341L37.4929 32.0227C37.2599 33.267 36.2827 33.983 34.9702 33.983C33.2031 33.983 32.0043 32.6705 32.0043 30.1818C32.0043 27.7614 33.1861 26.3807 34.9872 26.3807C36.3338 26.3807 37.3054 27.1591 37.4929 28.4375H39.9815Z" fill="black"/>
<g opacity="0.4">
<path d="M10 4C10 2.89543 10.8954 2 12 2C13.1046 2 14 2.89543 14 4V8C14 9.10457 13.1046 10 12 10C10.8954 10 10 9.10457 10 8V4Z" fill="black"/>
<path d="M34 4C34 2.89543 34.8954 2 36 2C37.1046 2 38 2.89543 38 4V8C38 9.10457 37.1046 10 36 10C34.8954 10 34 9.10457 34 8V4Z" fill="black"/>
</g>
<path fill-rule="evenodd" clip-rule="evenodd" d="M10 6.00869C7.52043 6.04456 6.11466 6.22849 5.17157 7.17157C4 8.34315 4 10.2288 4 14V16H44V14C44 10.2288 44 8.34315 42.8284 7.17157C41.8853 6.22849 40.4796 6.04456 38 6.00869V8C38 9.10457 37.1046 10 36 10C34.8954 10 34 9.10457 34 8V6H14V8C14 9.10457 13.1046 10 12 10C10.8954 10 10 9.10457 10 8V6.00869Z" fill="black"/>
</svg>

<svg xmlns="http://www.w3.org/2000/svg" width="48" height="48" fill="none" viewBox="0 0 48 48">
  <rect width="40" height="40" x="4" y="6" fill="#000" opacity=".2" rx="4"/>
  <path fill="#000" d="M12.402 36c3.545 0 5.693-2.193 5.693-5.83 0-3.625-2.148-5.806-5.659-5.806H8.277V36h4.125zm-1.665-2.108v-7.42h1.568c2.182 0 3.336 1.113 3.336 3.698 0 2.597-1.154 3.722-3.341 3.722h-1.563zM19.917 36h7.864v-2.028h-5.403v-2.779h4.977v-2.028h-4.977v-2.773h5.38v-2.028h-7.84V36zm20.064-7.563c-.323-2.687-2.357-4.233-5.05-4.233-3.074 0-5.421 2.171-5.421 5.978 0 3.795 2.307 5.977 5.42 5.977 2.983 0 4.785-1.983 5.051-4.125l-2.488-.011c-.233 1.244-1.21 1.96-2.523 1.96-1.767 0-2.966-1.313-2.966-3.801 0-2.42 1.182-3.801 2.983-3.801 1.347 0 2.318.778 2.506 2.056h2.488z"/>
  <g opacity=".4">
    <path fill="#000" d="M10 4a2 2 0 114 0v4a2 2 0 11-4 0V4zM34 4a2 2 0 114 0v4a2 2 0 11-4 0V4z"/>
  </g>
  <path fill="#000" fill-rule="evenodd" d="M10 6.009c-2.48.036-3.885.22-4.828 1.163C4 8.343 4 10.229 4 14v2h40v-2c0-3.771 0-5.657-1.172-6.828-.943-.944-2.348-1.127-4.828-1.163V8a2 2 0 11-4 0V6H14v2a2 2 0 11-4 0V6.009z" clip-rule="evenodd"/>
</svg>
